germany/municipalities/03459002.svg

<?xml version="1.0" encoding="UTF-8" standalone="no"?>
<!DOCTYPE svg PUBLIC "-//W3C//DTD SVG 1.0//EN" "http://www.w3.org/TR/2001/REC-SVG-20010904/DTD/svg10.dtd">
<svg width="100%" height="100%" viewBox="0 0 282 350" version="1.1" xmlns="http://www.w3.org/2000/svg">
 <path d="m 141,350 c 78.11,0 141,-52.41 141,-117.52 L 282,0 141,0 0,0 0,232.48 C 0,297.59 62.886,350 141,350 z" id="feld10" style="opacity:1;fill:#fff;fill-opacity:1;fill-rule:nonzero;stroke:#0f47af;stroke-width:0;stroke-linecap:round;stroke-linejoin:miter;marker:none;marker-start:none;marker-mid:none;marker-end:none;stroke-miterlimit:4;stroke-dashoffset:0;stroke-opacity:1;visibility:visible;display:inline;overflow:visible;enable-background:accumulate"/>
  <path d="M 0,0.0625 L 0,67.9375 L 107.0625,175 L 8.71875,273.34375 C 15.193368,287.97766 25.039474,301.23227 37.5,312.4375 L 141,208.9375 L 244.5,312.4375 C 256.96053,301.23227 266.80663,287.97766 273.28125,273.34375 L 174.9375,175 L 282,67.9375 L 282,0.0625 L 141,141.0625 L 0,0.0625 z" id="schragen12" style="opacity:1;fill:#da121a;fill-opacity:1;fill-rule:nonzero;stroke:#000000;stroke-width:0;stroke-linecap:round;stroke-linejoin:miter;marker:none;marker-start:none;marker-mid:none;marker-end:none;stroke-miterlimit:4;stroke-dasharray:none;stroke-dashoffset:0;stroke-opacity:1;visibility:visible;display:inline;overflow:visible;enable-background:accumulate"/>
  <path d="M 177.5,66.75 C 177.5,46.667357 161.08263,30.25 141,30.25 C 120.91736,30.25 104.5,46.667357 104.5,66.75 C 104.5,86.83264 120.91736,103.25 141,103.25 C 161.08263,103.25 177.5,86.83264 177.5,66.75 z M 165.50081,66.75 C 165.50081,80.339804 154.58981,91.25081 141,91.25081 C 127.41019,91.25081 116.49919,80.339804 116.49919,66.75 C 116.49919,53.160196 127.41019,42.24919 141,42.24919 C 154.58981,42.24919 165.50081,53.160196 165.50081,66.75 z" id="ring14" style="fill:#fcdd09;fill-opacity:1;fill-rule:nonzero;stroke:#000000;stroke-width:2.5;stroke-linecap:round;stroke-linejoin:miter;marker:none;stroke-miterlimit:4;stroke-dasharray:none;stroke-dashoffset:0;stroke-opacity:1;visibility:visible;display:inline;overflow:visible;enable-background:accumulate"/>
  <path d="M 49.75,138.5 C 29.667357,138.5 13.25,154.91737 13.25,175 C 13.25,195.08264 29.667357,211.5 49.75,211.5 C 69.832643,211.5 86.25,195.08264 86.25,175 C 86.25,154.91737 69.832643,138.5 49.75,138.5 z M 49.75,150.49919 C 63.339804,150.49919 74.25081,161.41019 74.25081,175 C 74.25081,188.58981 63.339804,199.50081 49.75,199.50081 C 36.160196,199.50081 25.24919,188.58981 25.24919,175 C 25.24919,161.41019 36.160196,150.49919 49.75,150.49919 z" id="ring16" style="opacity:1;fill:#fcdd09;fill-opacity:1;fill-rule:nonzero;stroke:#000000;stroke-width:2.5;stroke-linecap:round;stroke-linejoin:miter;marker:none;stroke-miterlimit:4;stroke-dasharray:none;stroke-dashoffset:0;stroke-opacity:1;visibility:visible;display:inline;overflow:visible;enable-background:accumulate"/>
  <path d="M 232.75,138.5 C 212.66736,138.5 196.25,154.91737 196.25,175 C 196.25,195.08264 212.66736,211.5 232.75,211.5 C 252.83264,211.5 269.25,195.08264 269.25,175 C 269.25,154.91737 252.83264,138.5 232.75,138.5 z M 232.75,150.49919 C 246.3398,150.49919 257.25081,161.41019 257.25081,175 C 257.25081,188.58981 246.3398,199.50081 232.75,199.50081 C 219.1602,199.50081 208.24919,188.58981 208.24919,175 C 208.24919,161.41019 219.1602,150.49919 232.75,150.49919 z" id="ring18" style="opacity:1;fill:#fcdd09;fill-opacity:1;fill-rule:nonzero;stroke:#000000;stroke-width:2.5;stroke-linecap:round;stroke-linejoin:miter;marker:none;stroke-miterlimit:4;stroke-dasharray:none;stroke-dashoffset:0;stroke-opacity:1;visibility:visible;display:inline;overflow:visible;enable-background:accumulate"/>
  <path d="M 177.5,284.25 C 177.5,264.16736 161.08263,247.75 141,247.75 C 120.91736,247.75 104.5,264.16736 104.5,284.25 C 104.5,304.33264 120.91736,320.75 141,320.75 C 161.08263,320.75 177.5,304.33264 177.5,284.25 z M 165.50081,284.25 C 165.50081,297.8398 154.58981,308.75081 141,308.75081 C 127.41019,308.75081 116.49919,297.8398 116.49919,284.25 C 116.49919,270.6602 127.41019,259.74919 141,259.74919 C 154.58981,259.74919 165.50081,270.6602 165.50081,284.25 z" id="ring20" style="fill:#fcdd09;fill-opacity:1;fill-rule:nonzero;stroke:#000000;stroke-width:2.5;stroke-linecap:round;stroke-linejoin:miter;marker:none;stroke-miterlimit:4;stroke-dasharray:none;stroke-dashoffset:0;stroke-opacity:1;visibility:visible;display:inline;overflow:visible;enable-background:accumulate"/>
  <path d="M 0,0 L 0,232.5 C 0,297.60339 62.886,350 141,350 C 219.114,350 282,297.60339 282,232.5 L 282,0 L 141,0 L 0,0 z M 4,4 L 141,4 L 278,4 L 278,232.5 C 278,295.02755 217.32476,346 141,346 C 64.67524,346 4,295.02755 4,232.5 L 4,4 z" id="schildrand22" style="opacity:1;fill:#000000;fill-opacity:1;fill-rule:nonzero;stroke:none;stroke-width:8;stroke-linecap:round;stroke-linejoin:miter;marker:none;stroke-miterlimit:4;stroke-dasharray:none;stroke-dashoffset:0;stroke-opacity:1;visibility:visible;display:inline;overflow:visible;enable-background:accumulate"/>
</svg>

<svg viewBox="0 0 282 350" xmlns="http://www.w3.org/2000/svg"><path d="M141 350c78.11 0 141-52.41 141-117.52V0H141 0v232.48C0 297.59 62.886 350 141 350z" style="opacity:1;fill:#fff;fill-opacity:1;fill-rule:nonzero;stroke:#0f47af;stroke-width:0;stroke-linecap:round;stroke-linejoin:miter;marker:none;marker-start:none;marker-mid:none;marker-end:none;stroke-miterlimit:4;stroke-dashoffset:0;stroke-opacity:1;visibility:visible;display:inline;overflow:visible;enable-background:accumulate"/><path d="M0 .063v67.874L107.063 175 8.719 273.344c6.474 14.634 16.32 27.888 28.781 39.094l103.5-103.5 103.5 103.5c12.46-11.206 22.307-24.46 28.781-39.094L174.937 175 282 67.937V.064l-141 141L0 .063z" style="opacity:1;fill:#da121a;fill-opacity:1;fill-rule:nonzero;stroke:#000;stroke-width:0;stroke-linecap:round;stroke-linejoin:miter;marker:none;marker-start:none;marker-mid:none;marker-end:none;stroke-miterlimit:4;stroke-dasharray:none;stroke-dashoffset:0;stroke-opacity:1;visibility:visible;display:inline;overflow:visible;enable-background:accumulate"/><path d="M177.5 66.75c0-20.083-16.417-36.5-36.5-36.5s-36.5 16.417-36.5 36.5 16.417 36.5 36.5 36.5 36.5-16.417 36.5-36.5zm-12 0c0 13.59-10.91 24.5-24.5 24.5a24.426 24.426 0 0 1-24.5-24.5c0-13.59 10.91-24.5 24.5-24.5s24.5 10.91 24.5 24.5z" style="fill:#fcdd09;fill-opacity:1;fill-rule:nonzero;stroke:#000;stroke-width:2.5;stroke-linecap:round;stroke-linejoin:miter;marker:none;stroke-miterlimit:4;stroke-dasharray:none;stroke-dashoffset:0;stroke-opacity:1;visibility:visible;display:inline;overflow:visible;enable-background:accumulate"/><path d="M49.75 138.5c-20.083 0-36.5 16.417-36.5 36.5s16.417 36.5 36.5 36.5 36.5-16.417 36.5-36.5-16.417-36.5-36.5-36.5zm0 12c13.59 0 24.5 10.91 24.5 24.5s-10.91 24.5-24.5 24.5a24.426 24.426 0 0 1-24.5-24.5c0-13.59 10.91-24.5 24.5-24.5zM232.75 138.5c-20.083 0-36.5 16.417-36.5 36.5s16.417 36.5 36.5 36.5 36.5-16.417 36.5-36.5-16.417-36.5-36.5-36.5zm0 12c13.59 0 24.5 10.91 24.5 24.5s-10.91 24.5-24.5 24.5a24.426 24.426 0 0 1-24.5-24.5c0-13.59 10.91-24.5 24.5-24.5z" style="opacity:1;fill:#fcdd09;fill-opacity:1;fill-rule:nonzero;stroke:#000;stroke-width:2.5;stroke-linecap:round;stroke-linejoin:miter;marker:none;stroke-miterlimit:4;stroke-dasharray:none;stroke-dashoffset:0;stroke-opacity:1;visibility:visible;display:inline;overflow:visible;enable-background:accumulate"/><path d="M177.5 284.25c0-20.083-16.417-36.5-36.5-36.5s-36.5 16.417-36.5 36.5 16.417 36.5 36.5 36.5 36.5-16.417 36.5-36.5zm-12 0c0 13.59-10.91 24.5-24.5 24.5a24.426 24.426 0 0 1-24.5-24.5c0-13.59 10.91-24.5 24.5-24.5s24.5 10.91 24.5 24.5z" style="fill:#fcdd09;fill-opacity:1;fill-rule:nonzero;stroke:#000;stroke-width:2.5;stroke-linecap:round;stroke-linejoin:miter;marker:none;stroke-miterlimit:4;stroke-dasharray:none;stroke-dashoffset:0;stroke-opacity:1;visibility:visible;display:inline;overflow:visible;enable-background:accumulate"/><path d="M0 0v232.5C0 297.603 62.886 350 141 350s141-52.397 141-117.5V0H0zm4 4h274v228.5c0 62.528-60.675 113.5-137 113.5S4 295.028 4 232.5V4z" style="opacity:1;fill:#000;fill-opacity:1;fill-rule:nonzero;stroke:none;stroke-width:8;stroke-linecap:round;stroke-linejoin:miter;marker:none;stroke-miterlimit:4;stroke-dasharray:none;stroke-dashoffset:0;stroke-opacity:1;visibility:visible;display:inline;overflow:visible;enable-background:accumulate"/></svg>
